assets/img/braze_icons/shuffle-01.svg

<svg fill="none" height="24" viewBox="0 0 24 24" width="24" xmlns="http://www.w3.org/2000/svg"><g fill="#801ed7"><path d="m18.7071 2.29289c-.3905-.39052-1.0237-.39052-1.4142 0-.3905.39053-.3905 1.02369 0 1.41422l1.293 1.29299-.1489-.00005c-.8107-.00048-1.4225-.00085-1.9938.17266-.5031.1528-.9712.40332-1.3775.73721-.4613.37913-.8003.88838-1.2496 1.56317l-5.22319 7.83491c-.55552.8332-.72619 1.0709-.92854 1.2372-.20312.1669-.43717.2922-.68875.3686-.25063.0761-.54302.0863-1.5445.0863h-2.43112c-.55228 0-1 .4477-1 1s.44772 1 1 1l2.56299.0001c.81067.0004 1.42247.0008 1.9938-.1727.50316-.1528.97125-.4033 1.3775-.7372.46128-.3791.80034-.8884 1.24961-1.5632l5.2232-7.83486c.5555-.83328.7262-1.07091.9285-1.23723.2032-.16695.4372-.2922.6888-.36861.2506-.07611.543-.0863 1.5445-.0863h.0168l-1.2928 1.29279c-.3905.39053-.3905 1.02369 0 1.41422.3905.39049 1.0237.39049 1.4142 0l3-3c.3905-.39053.3905-1.02369 0-1.41422z"/><path d="m18.7071 14.2929c-.3905-.3905-1.0237-.3905-1.4142 0s-.3905 1.0237 0 1.4142l1.293 1.293h-.017c-1.0015 0-1.2939-.0102-1.5445-.0863-.2516-.0764-.4856-.2017-.6888-.3686-.2023-.1663-.373-.404-.9285-1.2372l-.2417-.3626c-.3064-.4595-.9272-.5837-1.3868-.2773-.4595.3063-.5837.9272-.2773 1.3867l.3148.4723c.4493.6748.7883 1.1841 1.2496 1.5632.4063.3339.8744.5844 1.3775.7372.5713.1735 1.1831.1731 1.9938.1727l.1487-.0001-1.2928 1.2928c-.3905.3905-.3905 1.0237 0 1.4142s1.0237.3905 1.4142 0l3-3c.3905-.3905.3905-1.0237 0-1.4142z"/><path d="m6.97562 7.0864c-.25063-.07611-.54302-.0863-1.5445-.0863h-2.43112c-.55228 0-1-.44771-1-1 0-.55228.44772-1 1-1l2.56298-.00005c.81067-.00048 1.42248-.00085 1.99381.17266.50316.1528.97125.40332 1.3775.73721.46128.37913.80034.88839 1.24961 1.56317l.3148.47231c.3064.45953.1822 1.0804-.2773 1.38675-.45956.30635-1.08043.18218-1.38678-.27735l-.24171-.36256c-.55552-.83328-.72619-1.07091-.92854-1.23723-.20312-.16695-.43717-.2922-.68875-.36861z"/></g></svg>

<svg width="24" height="24" viewBox="0 0 24 24" fill="none" xmlns="http://www.w3.org/2000/svg">
<path d="M18.7071 2.29289C18.3166 1.90237 17.6834 1.90237 17.2929 2.29289C16.9024 2.68342 16.9024 3.31658 17.2929 3.70711L18.5859 5.0001L18.437 5.00005C17.6263 4.99957 17.0145 4.9992 16.4432 5.17271C15.9401 5.32551 15.472 5.57603 15.0657 5.90992C14.6044 6.28905 14.2654 6.7983 13.8161 7.47309L8.59291 15.308C8.03739 16.1412 7.86672 16.3789 7.66437 16.5452C7.46125 16.7121 7.2272 16.8374 6.97562 16.9138C6.72499 16.9899 6.4326 17.0001 5.43112 17.0001H3C2.44772 17.0001 2 17.4478 2 18.0001C2 18.5524 2.44772 19.0001 3 19.0001L5.56299 19.0002C6.37366 19.0006 6.98546 19.001 7.55679 18.8275C8.05995 18.6747 8.52804 18.4242 8.93429 18.0903C9.39557 17.7112 9.73463 17.2019 10.1839 16.5271L15.4071 8.69224C15.9626 7.85896 16.1333 7.62133 16.3356 7.45501C16.5388 7.28806 16.7728 7.16281 17.0244 7.0864C17.275 7.01029 17.5674 7.0001 18.5689 7.0001H18.5857L17.2929 8.29289C16.9024 8.68342 16.9024 9.31658 17.2929 9.70711C17.6834 10.0976 18.3166 10.0976 18.7071 9.70711L21.7071 6.70711C22.0976 6.31658 22.0976 5.68342 21.7071 5.29289L18.7071 2.29289Z" fill="#801ED7"/>
<path d="M18.7071 14.2929C18.3166 13.9024 17.6834 13.9024 17.2929 14.2929C16.9024 14.6834 16.9024 15.3166 17.2929 15.7071L18.5859 17.0001H18.5689C17.5674 17.0001 17.275 16.9899 17.0244 16.9138C16.7728 16.8374 16.5388 16.7121 16.3356 16.5452C16.1333 16.3789 15.9626 16.1412 15.4071 15.308L15.1654 14.9454C14.859 14.4859 14.2382 14.3617 13.7786 14.6681C13.3191 14.9744 13.1949 15.5953 13.5013 16.0548L13.8161 16.5271C14.2654 17.2019 14.6044 17.7112 15.0657 18.0903C15.472 18.4242 15.9401 18.6747 16.4432 18.8275C17.0145 19.001 17.6263 19.0006 18.437 19.0002L18.5857 19.0001L17.2929 20.2929C16.9024 20.6834 16.9024 21.3166 17.2929 21.7071C17.6834 22.0976 18.3166 22.0976 18.7071 21.7071L21.7071 18.7071C22.0976 18.3166 22.0976 17.6834 21.7071 17.2929L18.7071 14.2929Z" fill="#801ED7"/>
<path d="M6.97562 7.0864C6.72499 7.01029 6.4326 7.0001 5.43112 7.0001H3C2.44772 7.0001 2 6.55239 2 6.0001C2 5.44782 2.44772 5.0001 3 5.0001L5.56298 5.00005C6.37365 4.99957 6.98546 4.9992 7.55679 5.17271C8.05995 5.32551 8.52804 5.57603 8.93429 5.90992C9.39557 6.28905 9.73463 6.79831 10.1839 7.47309L10.4987 7.9454C10.8051 8.40493 10.6809 9.0258 10.2214 9.33215C9.76184 9.6385 9.14097 9.51433 8.83462 9.0548L8.59291 8.69224C8.03739 7.85896 7.86672 7.62133 7.66437 7.45501C7.46125 7.28806 7.2272 7.16281 6.97562 7.0864Z" fill="#801ED7"/>
</svg>
